.local/share/icons/Gruvbox-Plus-Dark/actions/16/view-sort.svg

<svg width="16" height="16" version="1.1" xmlns="http://www.w3.org/2000/svg">
  <defs>
    <style id="current-color-scheme" type="text/css">.ColorScheme-Text { color:#ebdbb2; } .ColorScheme-Highlight { color:#458588; }</style>
  </defs>
  <path class="ColorScheme-Text" d="m12 1-3 4h2v3h2v-3h2zm-9.5 1c-0.8284 0-1.5 0.6716-1.5 1.5s0.6716 1.5 1.5 1.5 1.5-0.6716 1.5-1.5-0.6716-1.5-1.5-1.5zm0 4c-0.8284 0-1.5 0.6716-1.5 1.5s0.6716 1.5 1.5 1.5 1.5-0.6716 1.5-1.5-0.6716-1.5-1.5-1.5zm4.5 1v3h-2l3 4 3-4h-2v-3zm-4.5 3c-0.8284 0-1.5 0.6716-1.5 1.5s0.6716 1.5 1.5 1.5 1.5-0.6716 1.5-1.5-0.6716-1.5-1.5-1.5z" fill="currentColor"/>
</svg>

<svg xmlns="http://www.w3.org/2000/svg" width="16" height="16" version="1.1">
 <defs>
  <style id="current-color-scheme" type="text/css">
   .ColorScheme-Text { color:#565656; } .ColorScheme-Highlight { color:#5294e2; }
  </style>
 </defs>
 <path style="fill:currentColor" class="ColorScheme-Text" d="M 11 1 L 8 5 L 10 5 L 10 8 L 12 8 L 12 5 L 14 5 L 11 1 z M 2.5 2 A 1.5 1.5 0 0 0 1 3.5 A 1.5 1.5 0 0 0 2.5 5 A 1.5 1.5 0 0 0 4 3.5 A 1.5 1.5 0 0 0 2.5 2 z M 2.5 6 A 1.5 1.5 0 0 0 1 7.5 A 1.5 1.5 0 0 0 2.5 9 A 1.5 1.5 0 0 0 4 7.5 A 1.5 1.5 0 0 0 2.5 6 z M 7 7 L 7 10 L 5 10 L 8 14 L 11 10 L 9 10 L 9 7 L 7 7 z M 2.5 10 A 1.5 1.5 0 0 0 1 11.5 A 1.5 1.5 0 0 0 2.5 13 A 1.5 1.5 0 0 0 4 11.5 A 1.5 1.5 0 0 0 2.5 10 z"/>
</svg>
